X:285
T:Recruiting Officer (the)
R:waltz 32
C:Trad. ed. Barry Callaghan
S:'Hard Core English' page 63C
O:England
B:Hard Core English ISBN 978 085418 201 5
Z:PJHeadford 2008
M:6/8
L:1/8
Q:1/4=80
K:D
|:A|def ecA|d3 A2G/F/|GAB AFD|E3 A,2A|\
def edc|BgB AGF|GAB cAc|d3 D2:|
|:e|fga ecA|g3 f3|Bcd efd|c3 A2a/g/|\
fed cac|BgB AGF|GAB cAc|d3 D2:|]
W:George Farqhuar wrote a comedy of this name 1760. In Jackson,
W:Harrison, Vickers, Watts, Biggins.

